public/icons/CodeFellowsBadge.svg

<?xml version="1.0" encoding="UTF-8" standalone="no" ?>
<!DOCTYPE svg PUBLIC "-//W3C//DTD SVG 1.1//EN" "http://www.w3.org/Graphics/SVG/1.1/DTD/svg11.dtd">
<svg xmlns="http://www.w3.org/2000/svg" xmlns:xlink="http://www.w3.org/1999/xlink" version="1.1" width="900" height="900" viewBox="0 0 900 900" xml:space="preserve">
<desc>Created with Fabric.js 5.2.4</desc>
<defs>
</defs>
<g transform="matrix(1 0 0 1 450 450)" id="ee39466f-9f3a-4f1c-819a-0f1eddc392b3"  >
<rect style="stroke: none; stroke-width: 1; stroke-dasharray: none; stroke-linecap: butt; stroke-dashoffset: 0; stroke-linejoin: miter; stroke-miterlimit: 4; fill: rgb(255,255,255); fill-rule: nonzero; opacity: 1; visibility: hidden;" vector-effect="non-scaling-stroke"  x="-450" y="-450" rx="0" ry="0" width="900" height="900" />
</g>
<g transform="matrix(Infinity NaN NaN Infinity 0 0)" id="b169da13-eca7-4b1e-83ee-b09675db333e"  >
</g>
<g transform="matrix(0.83 0 0 0.83 450 450)"  >
<g style="" vector-effect="non-scaling-stroke"   >
		<g transform="matrix(1 0 0 1 0 0)"  >
<path style="stroke: none; stroke-width: 1; stroke-dasharray: none; stroke-linecap: butt; stroke-dashoffset: 0; stroke-linejoin: miter; stroke-miterlimit: 4; fill: rgb(206,53,39); fill-rule: nonzero; opacity: 1;" vector-effect="non-scaling-stroke"  transform=" translate(-429.64, -483.48)" d="M 0.59 161.63 C 31.05 144.06 62.38 128.09 94.15 113.08 C 132.68 94.88 172.13 78.77 212.15 64.08 C 278.29 39.81 345.55 19.35 413.78 1.77 C 430.83 -2.6199999999999997 445.58 2.05 460.82 5.99 C 510.14 18.740000000000002 558.97 33.2 607.0799999999999 49.99 C 664.9599999999999 70.19 721.8599999999999 92.73 777.1299999999999 119.37 C 803.6699999999998 132.17000000000002 829.5999999999999 146.01 855.2699999999999 160.4 C 857.8899999999999 161.87 859.2899999999998 163.34 859.2799999999999 166.67000000000002 C 859.0199999999999 230.15 859.6199999999999 293.64 858.4499999999998 357.1 C 857.8999999999999 386.93 854.2499999999998 416.67 849.5699999999998 446.29 C 845.2799999999999 473.42 839.3199999999998 500.13 832.0399999999998 526.47 C 825.5599999999998 549.9300000000001 817.6699999999998 573.0500000000001 808.3299999999998 595.6600000000001 C 799.6399999999998 616.6800000000001 790.1299999999998 637.2900000000001 779.3599999999998 657.2500000000001 C 767.4199999999997 679.3800000000001 753.8599999999998 700.5500000000001 739.8699999999998 721.5200000000001 C 712.6699999999997 762.2800000000001 679.8799999999998 798.0000000000001 644.2899999999997 831.2200000000001 C 604.9999999999998 867.9000000000001 561.5199999999998 899.1100000000001 514.8699999999998 925.9500000000002 C 487.87999999999977 941.4700000000001 459.69999999999976 954.4600000000002 431.2499999999998 966.9600000000002 L 428.44999999999976 966.9600000000002 C 427.93999999999977 965.2200000000001 426.25999999999976 965.4800000000001 425.03999999999974 965.0700000000002 C 397.97999999999973 955.7200000000001 371.95999999999975 943.9900000000001 346.7399999999997 930.5400000000002 C 251.80999999999972 879.9200000000002 173.66999999999973 810.4200000000002 112.74999999999972 721.8400000000001 C 88.99999999999972 687.3000000000002 69.67999999999972 650.2700000000002 53.52999999999972 611.6100000000001 C 43.149999999999714 586.7500000000001 34.429999999999715 561.3000000000002 27.309999999999718 535.3200000000002 C 17.529999999999717 499.65000000000015 10.649999999999718 463.45000000000016 6.079999999999718 426.71000000000015 C 3.8799999999997175 409.00000000000017 2.299999999999718 391.23000000000013 1.0299999999997178 373.50000000000017 C -0.5100000000002822 351.9900000000002 0.1499999999997178 330.3100000000002 0.10999999999971777 308.71000000000015 C 0.01999999999971777 262.21000000000015 0.06999999999971776 215.72000000000014 0.10999999999971777 169.22000000000014 C 0.10999999999971777 166.69000000000014 0.4299999999997178 164.15000000000015 0.5999999999997178 161.62000000000015 Z M 326.57 632.2 C 344.05 632.2 360.81 632.01 377.57 632.32 C 382.02 632.4000000000001 383.98 630.7700000000001 385.58 626.9200000000001 C 397.8 597.48 410.33 568.1700000000001 422.49 538.71 C 434.2 510.34000000000003 445.48 481.79 457.15 453.40000000000003 C 468.15999999999997 426.62 479.46999999999997 399.97 490.59 373.23 C 500.81 348.64000000000004 510.97999999999996 324.03000000000003 521.12 299.41 C 527.13 284.82000000000005 532.86 270.12 539.07 255.62000000000003 C 540.9000000000001 251.36000000000004 539.96 250.66000000000003 535.7600000000001 250.73000000000005 C 523.6500000000001 250.92000000000004 511.48000000000013 251.53000000000006 499.4500000000001 250.57000000000005 C 489.1200000000001 249.75000000000006 482.0200000000001 251.90000000000006 479.8400000000001 262.97 C 479.7100000000001 263.61 479.1000000000001 264.13000000000005 478.8400000000001 264.76000000000005 C 462.6600000000001 304.18000000000006 446.5200000000001 343.6 430.3300000000001 383.01000000000005 C 419.3900000000001 409.63000000000005 408.4700000000001 436.25000000000006 397.3800000000001 462.80000000000007 C 388.8000000000001 483.3400000000001 379.4900000000001 503.55000000000007 371.5100000000001 524.3600000000001 C 364.48000000000013 542.7000000000002 356.3300000000001 560.6000000000001 348.7400000000001 578.7300000000001 C 341.42000000000013 596.2300000000001 334.2000000000001 613.7600000000001 326.5700000000001 632.1800000000002 Z M 299.53999999999996 316.99000000000007 C 295.87999999999994 318.7300000000001 293.34999999999997 319.83000000000004 290.9 321.1000000000001 C 261.60999999999996 336.3500000000001 232.30999999999997 351.5800000000001 203.04999999999998 366.8900000000001 C 174.76999999999998 381.6900000000001 146.55999999999997 396.6400000000001 118.22999999999999 411.3400000000001 C 115.22999999999999 412.9000000000001 113.77999999999999 414.3300000000001 113.83999999999999 417.93000000000006 C 114.05999999999999 433.2800000000001 114.02999999999999 448.63000000000005 113.85999999999999 463.9800000000001 C 113.81999999999998 467.44000000000005 114.88999999999999 469.32000000000005 118.05999999999999 470.94000000000005 C 129.23999999999998 476.65000000000003 140.17999999999998 482.83000000000004 151.31 488.6600000000001 C 184.55 506.06000000000006 217.82 523.3900000000001 251.10000000000002 540.71 C 264.61 547.75 278.15000000000003 554.74 291.71000000000004 561.69 C 299.44000000000005 565.6500000000001 299.53000000000003 565.5600000000001 299.54 557.2900000000001 C 299.54 541.2400000000001 299.41 525.19 299.63 509.1400000000001 C 299.69 505.0900000000001 298.90999999999997 502.8000000000001 294.84 500.7700000000001 C 275.34999999999997 491.0200000000001 256.15 480.7000000000001 236.79999999999998 470.6800000000001 C 219.64 461.79000000000013 202.39 453.0600000000001 185.23999999999998 444.1400000000001 C 183.77999999999997 443.3800000000001 181.12999999999997 443.2600000000001 181.33999999999997 440.9500000000001 C 181.51999999999998 438.9800000000001 183.92999999999998 438.8100000000001 185.43999999999997 438.0100000000001 C 200.34999999999997 430.1300000000001 215.26999999999998 422.2500000000001 230.19999999999996 414.4100000000001 C 252.12999999999997 402.8900000000001 274.02 391.2900000000001 296.0799999999999 380.0400000000001 C 298.55999999999995 378.7800000000001 299.5899999999999 377.8900000000001 299.5799999999999 375.18000000000006 C 299.48999999999995 356.14000000000004 299.5299999999999 337.1000000000001 299.5299999999999 317.00000000000006 Z M 560.14 564.32 C 569.96 560.5 578.5 555.44 587.28 550.8100000000001 C 619.65 533.73 652.12 516.86 684.55 499.9000000000001 C 703.2199999999999 490.1400000000001 721.8399999999999 480.2900000000001 740.56 470.6300000000001 C 743.9599999999999 468.8700000000001 745.88 466.9300000000001 745.8299999999999 462.7600000000001 C 745.6199999999999 447.6500000000001 745.78 432.5300000000001 745.6999999999999 417.4200000000001 C 745.6999999999999 415.81000000000006 746.6999999999999 413.4800000000001 743.8299999999999 412.94000000000005 C 738.68 411.96000000000004 735.2499999999999 407.90000000000003 730.81 405.62000000000006 C 709.39 394.62000000000006 688.2399999999999 383.07000000000005 666.66 372.39000000000004 C 648.11 363.22 629.79 353.55000000000007 611.48 343.97 C 596.7 336.24 581.32 329.48 567.19 320.46000000000004 C 565.25 319.22 563.22 317.17 560.1500000000001 318.36 C 560.1500000000001 337.23 560.2700000000001 356.06 560.0500000000001 374.88 C 560.0000000000001 378.87 561.8800000000001 380.57 564.9900000000001 382.15999999999997 C 598.1100000000001 399.09999999999997 631.1900000000002 416.09999999999997 664.2600000000001 433.15 C 669.1000000000001 435.65 673.7700000000001 438.48999999999995 678.6200000000001 441.22999999999996 C 664.9600000000002 448.35999999999996 651.7100000000002 455.28 638.4400000000002 462.18999999999994 C 613.8800000000002 474.97999999999996 589.3300000000002 487.79999999999995 564.7300000000001 500.5199999999999 C 562.2000000000002 501.8299999999999 560.0400000000001 502.7199999999999 560.0700000000002 506.3299999999999 C 560.2400000000001 525.3799999999999 560.1500000000002 544.4399999999999 560.1500000000002 564.3199999999999 Z" stroke-linecap="round" />
</g>
		<g transform="matrix(1 0 0 1 3.62 -42.1)"  >
<path style="stroke: none; stroke-width: 1; stroke-dasharray: none; stroke-linecap: butt; stroke-dashoffset: 0; stroke-linejoin: miter; stroke-miterlimit: 4; fill: rgb(255,255,255); fill-rule: nonzero; opacity: 1;" vector-effect="non-scaling-stroke"  transform=" translate(-433.26, -441.38)" d="M 326.57 632.19 C 334.21 613.7700000000001 341.43 596.23 348.74 578.74 C 356.32 560.61 364.48 542.71 371.51 524.37 C 379.48 503.56 388.8 483.35 397.38 462.81 C 408.46999999999997 436.26 419.39 409.63 430.33 383.02 C 446.52 343.61 462.65999999999997 304.17999999999995 478.84 264.77 C 479.09999999999997 264.14 479.71999999999997 263.62 479.84 262.97999999999996 C 482.02 251.90999999999997 489.11999999999995 249.75999999999996 499.45 250.57999999999996 C 511.47999999999996 251.53999999999996 523.65 250.92999999999995 535.76 250.73999999999995 C 539.96 250.66999999999996 540.9 251.36999999999995 539.0699999999999 255.62999999999994 C 532.8599999999999 270.12999999999994 527.1299999999999 284.8299999999999 521.1199999999999 299.41999999999996 C 510.9799999999999 324.03999999999996 500.8099999999999 348.65999999999997 490.5899999999999 373.23999999999995 C 479.4699999999999 399.96999999999997 468.1599999999999 426.62999999999994 457.1499999999999 453.40999999999997 C 445.4799999999999 481.79999999999995 434.19999999999993 510.34999999999997 422.4899999999999 538.72 C 410.32999999999987 568.1800000000001 397.7999999999999 597.49 385.5799999999999 626.9300000000001 C 383.9799999999999 630.7800000000001 382.0299999999999 632.4100000000001 377.56999999999994 632.33 C 360.80999999999995 632.0200000000001 344.04999999999995 632.21 326.56999999999994 632.21 Z" stroke-linecap="round" />
</g>
		<g transform="matrix(1 0 0 1 -222.9 -42.88)"  >
<path style="stroke: none; stroke-width: 1; stroke-dasharray: none; stroke-linecap: butt; stroke-dashoffset: 0; stroke-linejoin: miter; stroke-miterlimit: 4; fill: rgb(255,255,255); fill-rule: nonzero; opacity: 1;" vector-effect="non-scaling-stroke"  transform=" translate(-206.75, -440.6)" d="M 299.54 316.99 C 299.54 337.09000000000003 299.5 356.13 299.59000000000003 375.17 C 299.6 377.88 298.57000000000005 378.77000000000004 296.09000000000003 380.03000000000003 C 274.02000000000004 391.28000000000003 252.13000000000002 402.88000000000005 230.21000000000004 414.40000000000003 C 215.28000000000003 422.24 200.36000000000004 430.12000000000006 185.45000000000005 438.00000000000006 C 183.94000000000005 438.80000000000007 181.53000000000006 438.9700000000001 181.35000000000005 440.94000000000005 C 181.14000000000004 443.25000000000006 183.79000000000005 443.38000000000005 185.25000000000006 444.13000000000005 C 202.40000000000006 453.05000000000007 219.65000000000006 461.78000000000003 236.81000000000006 470.6700000000001 C 256.1600000000001 480.69000000000005 275.36000000000007 491.01000000000005 294.8500000000001 500.76000000000005 C 298.9200000000001 502.80000000000007 299.69000000000005 505.08000000000004 299.6400000000001 509.13000000000005 C 299.4200000000001 525.1800000000001 299.5500000000001 541.23 299.5500000000001 557.2800000000001 C 299.5500000000001 565.5500000000001 299.4500000000001 565.6400000000001 291.72000000000014 561.6800000000001 C 278.16000000000014 554.73 264.6200000000001 547.74 251.11000000000013 540.7 C 217.83000000000013 523.37 184.56000000000012 506.05000000000007 151.3200000000001 488.65000000000003 C 140.1900000000001 482.83000000000004 129.2500000000001 476.64000000000004 118.0700000000001 470.93000000000006 C 114.9000000000001 469.31000000000006 113.83000000000011 467.43000000000006 113.8700000000001 463.9700000000001 C 114.0400000000001 448.62000000000006 114.0700000000001 433.2700000000001 113.85000000000011 417.9200000000001 C 113.80000000000011 414.32000000000005 115.25000000000011 412.88000000000005 118.24000000000011 411.3300000000001 C 146.5700000000001 396.6300000000001 174.78000000000011 381.6800000000001 203.06000000000012 366.8800000000001 C 232.3200000000001 351.5700000000001 261.6200000000001 336.3300000000001 290.9100000000001 321.0900000000001 C 293.3500000000001 319.8200000000001 295.8900000000001 318.7100000000001 299.55000000000007 316.9800000000001 Z" stroke-linecap="round" />
</g>
		<g transform="matrix(1 0 0 1 223.31 -42.32)"  >
<path style="stroke: none; stroke-width: 1; stroke-dasharray: none; stroke-linecap: butt; stroke-dashoffset: 0; stroke-linejoin: miter; stroke-miterlimit: 4; fill: rgb(255,255,255); fill-rule: nonzero; opacity: 1;" vector-effect="non-scaling-stroke"  transform=" translate(-652.95, -441.16)" d="M 560.14 564.32 C 560.14 544.44 560.23 525.3800000000001 560.06 506.33000000000004 C 560.03 502.72 562.1899999999999 501.83000000000004 564.7199999999999 500.52000000000004 C 589.3199999999999 487.8 613.8699999999999 474.99 638.43 462.19000000000005 C 651.6899999999999 455.28000000000003 664.9499999999999 448.3500000000001 678.6099999999999 441.2300000000001 C 673.7599999999999 438.49000000000007 669.0899999999999 435.6500000000001 664.2499999999999 433.1500000000001 C 631.1899999999998 416.1000000000001 598.0999999999999 399.1000000000001 564.9799999999999 382.1600000000001 C 561.8699999999999 380.5700000000001 559.9899999999999 378.87000000000006 560.0399999999998 374.8800000000001 C 560.2599999999999 356.0600000000001 560.1399999999999 337.23000000000013 560.1399999999999 318.3600000000001 C 563.2099999999999 317.17000000000013 565.2399999999999 319.23000000000013 567.1799999999998 320.46000000000015 C 581.3099999999998 329.48000000000013 596.6999999999998 336.2400000000001 611.4699999999998 343.97000000000014 C 629.7799999999997 353.54000000000013 648.0999999999998 363.21000000000015 666.6499999999997 372.39000000000016 C 688.2299999999998 383.0600000000002 709.3799999999998 394.6200000000002 730.7999999999997 405.6200000000002 C 735.2499999999998 407.90000000000015 738.6699999999997 411.96000000000015 743.8199999999997 412.94000000000017 C 746.6899999999997 413.4800000000002 745.6799999999997 415.8100000000002 745.6899999999997 417.4200000000002 C 745.7699999999998 432.5300000000002 745.6099999999997 447.6500000000002 745.8199999999997 462.7600000000002 C 745.8799999999997 466.92000000000024 743.9499999999997 468.87000000000023 740.5499999999997 470.6300000000002 C 721.8299999999997 480.29000000000025 703.2099999999997 490.1400000000002 684.5399999999997 499.9000000000002 C 652.1099999999998 516.8600000000002 619.6399999999998 533.7300000000002 587.2699999999998 550.8100000000002 C 578.4899999999998 555.4400000000002 569.9499999999997 560.5000000000002 560.1299999999998 564.3200000000002 Z" stroke-linecap="round" />
</g>
</g>
</g>
</svg>

<?xml version="1.0" encoding="UTF-8"?>
<svg id="Layer_1" data-name="Layer 1" xmlns="http://www.w3.org/2000/svg" viewBox="0 0 859.28 966.97">
  <defs>
    <style>
      .cls-1 {
        fill: #fff;
      }

      .cls-2 {
        fill: #ce3527;
      }
    </style>
  </defs>
  <path class="cls-2" d="m.59,161.63c30.46-17.57,61.79-33.54,93.56-48.55,38.53-18.2,77.98-34.31,118-49C278.29,39.81,345.55,19.35,413.78,1.77c17.05-4.39,31.8.28,47.04,4.22,49.32,12.75,98.15,27.21,146.26,44,57.88,20.2,114.78,42.74,170.05,69.38,26.54,12.8,52.47,26.64,78.14,41.03,2.62,1.47,4.02,2.94,4.01,6.27-.26,63.48.34,126.97-.83,190.43-.55,29.83-4.2,59.57-8.88,89.19-4.29,27.13-10.25,53.84-17.53,80.18-6.48,23.46-14.37,46.58-23.71,69.19-8.69,21.02-18.2,41.63-28.97,61.59-11.94,22.13-25.5,43.3-39.49,64.27-27.2,40.76-59.99,76.48-95.58,109.7-39.29,36.68-82.77,67.89-129.42,94.73-26.99,15.52-55.17,28.51-83.62,41.01h-2.8c-.51-1.74-2.19-1.48-3.41-1.89-27.06-9.35-53.08-21.08-78.3-34.53-94.93-50.62-173.07-120.12-233.99-208.7-23.75-34.54-43.07-71.57-59.22-110.23-10.38-24.86-19.1-50.31-26.22-76.29-9.78-35.67-16.66-71.87-21.23-108.61-2.2-17.71-3.78-35.48-5.05-53.21-1.54-21.51-.88-43.19-.92-64.79-.09-46.5-.04-92.99,0-139.49,0-2.53.32-5.07.49-7.6Zm325.98,470.57c17.48,0,34.24-.19,51,.12,4.45.08,6.41-1.55,8.01-5.4,12.22-29.44,24.75-58.75,36.91-88.21,11.71-28.37,22.99-56.92,34.66-85.31,11.01-26.78,22.32-53.43,33.44-80.17,10.22-24.59,20.39-49.2,30.53-73.82,6.01-14.59,11.74-29.29,17.95-43.79,1.83-4.26.89-4.96-3.31-4.89-12.11.19-24.28.8-36.31-.16-10.33-.82-17.43,1.33-19.61,12.4-.13.64-.74,1.16-1,1.79-16.18,39.42-32.32,78.84-48.51,118.25-10.94,26.62-21.86,53.24-32.95,79.79-8.58,20.54-17.89,40.75-25.87,61.56-7.03,18.34-15.18,36.24-22.77,54.37-7.32,17.5-14.54,35.03-22.17,53.45Zm-27.03-315.21c-3.66,1.74-6.19,2.84-8.64,4.11-29.29,15.25-58.59,30.48-87.85,45.79-28.28,14.8-56.49,29.75-84.82,44.45-3,1.56-4.45,2.99-4.39,6.59.22,15.35.19,30.7.02,46.05-.04,3.46,1.03,5.34,4.2,6.96,11.18,5.71,22.12,11.89,33.25,17.72,33.24,17.4,66.51,34.73,99.79,52.05,13.51,7.04,27.05,14.03,40.61,20.98,7.73,3.96,7.82,3.87,7.83-4.4,0-16.05-.13-32.1.09-48.15.06-4.05-.72-6.34-4.79-8.37-19.49-9.75-38.69-20.07-58.04-30.09-17.16-8.89-34.41-17.62-51.56-26.54-1.46-.76-4.11-.88-3.9-3.19.18-1.97,2.59-2.14,4.1-2.94,14.91-7.88,29.83-15.76,44.76-23.6,21.93-11.52,43.82-23.12,65.88-34.37,2.48-1.26,3.51-2.15,3.5-4.86-.09-19.04-.05-38.08-.05-58.18Zm260.6,247.33c9.82-3.82,18.36-8.88,27.14-13.51,32.37-17.08,64.84-33.95,97.27-50.91,18.67-9.76,37.29-19.61,56.01-29.27,3.4-1.76,5.32-3.7,5.27-7.87-.21-15.11-.05-30.23-.13-45.34,0-1.61,1-3.94-1.87-4.48-5.15-.98-8.58-5.04-13.02-7.32-21.42-11-42.57-22.55-64.15-33.23-18.55-9.17-36.87-18.84-55.18-28.42-14.78-7.73-30.16-14.49-44.29-23.51-1.94-1.24-3.97-3.29-7.04-2.1,0,18.87.12,37.7-.1,56.52-.05,3.99,1.83,5.69,4.94,7.28,33.12,16.94,66.2,33.94,99.27,50.99,4.84,2.5,9.51,5.34,14.36,8.08-13.66,7.13-26.91,14.05-40.18,20.96-24.56,12.79-49.11,25.61-73.71,38.33-2.53,1.31-4.69,2.2-4.66,5.81.17,19.05.08,38.11.08,57.99Z"/>
  <path class="cls-1" d="m326.57,632.19c7.64-18.42,14.86-35.96,22.17-53.45,7.58-18.13,15.74-36.03,22.77-54.37,7.97-20.81,17.29-41.02,25.87-61.56,11.09-26.55,22.01-53.18,32.95-79.79,16.19-39.41,32.33-78.84,48.51-118.25.26-.63.88-1.15,1-1.79,2.18-11.07,9.28-13.22,19.61-12.4,12.03.96,24.2.35,36.31.16,4.2-.07,5.14.63,3.31,4.89-6.21,14.5-11.94,29.2-17.95,43.79-10.14,24.62-20.31,49.24-30.53,73.82-11.12,26.73-22.43,53.39-33.44,80.17-11.67,28.39-22.95,56.94-34.66,85.31-12.16,29.46-24.69,58.77-36.91,88.21-1.6,3.85-3.55,5.48-8.01,5.4-16.76-.31-33.52-.12-51-.12Z"/>
  <path class="cls-1" d="m299.54,316.99c0,20.1-.04,39.14.05,58.18.01,2.71-1.02,3.6-3.5,4.86-22.07,11.25-43.96,22.85-65.88,34.37-14.93,7.84-29.85,15.72-44.76,23.6-1.51.8-3.92.97-4.1,2.94-.21,2.31,2.44,2.44,3.9,3.19,17.15,8.92,34.4,17.65,51.56,26.54,19.35,10.02,38.55,20.34,58.04,30.09,4.07,2.04,4.84,4.32,4.79,8.37-.22,16.05-.09,32.1-.09,48.15,0,8.27-.1,8.36-7.83,4.4-13.56-6.95-27.1-13.94-40.61-20.98-33.28-17.33-66.55-34.65-99.79-52.05-11.13-5.82-22.07-12.01-33.25-17.72-3.17-1.62-4.24-3.5-4.2-6.96.17-15.35.2-30.7-.02-46.05-.05-3.6,1.4-5.04,4.39-6.59,28.33-14.7,56.54-29.65,84.82-44.45,29.26-15.31,58.56-30.55,87.85-45.79,2.44-1.27,4.98-2.38,8.64-4.11Z"/>
  <path class="cls-1" d="m560.14,564.32c0-19.88.09-38.94-.08-57.99-.03-3.61,2.13-4.5,4.66-5.81,24.6-12.72,49.15-25.53,73.71-38.33,13.26-6.91,26.52-13.84,40.18-20.96-4.85-2.74-9.52-5.58-14.36-8.08-33.06-17.05-66.15-34.05-99.27-50.99-3.11-1.59-4.99-3.29-4.94-7.28.22-18.82.1-37.65.1-56.52,3.07-1.19,5.1.87,7.04,2.1,14.13,9.02,29.52,15.78,44.29,23.51,18.31,9.57,36.63,19.24,55.18,28.42,21.58,10.67,42.73,22.23,64.15,33.23,4.45,2.28,7.87,6.34,13.02,7.32,2.87.54,1.86,2.87,1.87,4.48.08,15.11-.08,30.23.13,45.34.06,4.16-1.87,6.11-5.27,7.87-18.72,9.66-37.34,19.51-56.01,29.27-32.43,16.96-64.9,33.83-97.27,50.91-8.78,4.63-17.32,9.69-27.14,13.51Z"/>
</svg>
